X: 2
T: 2. The Girl in Green
R: Jig
S: Kerr's Violin III
M: 6/8
L: 1/8
% Q: 330
K: G
|: B |\
"G" ded BGB | "Am" c2 B "D" A2 G | "G"  DGG "Em" GFG | "Am" ABA "D" ABc  |
"G" ded BGB | "Am" c2 B "D" A2 G | "G"  DGG "C"  EGG | "G"  DGG     G2 B |
"G" ded Bdg | "C"  ecc      c3   | "Am" efe "A" ^cea | "D"  fdd     d2 f |
"G" gfe dcB | "Am" edc  "D" BAG  | "G"  DGG "C"  EGG | "G"  DGG     G2  :|
%%newpage
%%textfont Times-Roman 8
%%text November 2005 Dance page 3 of 31
